bundles/org.openhab.ui.habpanel/web/assets/icons/smarthome-set/socket-f.svg

<?xml version="1.0" encoding="UTF-8" standalone="no"?>
<svg width="32px" height="32px" viewBox="0 0 32 32" version="1.1" xmlns="http://www.w3.org/2000/svg" xmlns:xlink="http://www.w3.org/1999/xlink" xmlns:sketch="http://www.bohemiancoding.com/sketch/ns">
    <!-- Generator: Sketch 3.3.2 (12043) - http://www.bohemiancoding.com/sketch -->
    <title>socket f</title>
    <desc>Created with Sketch.</desc>
    <defs></defs>
    <g id="flatten" stroke="none" stroke-width="1" fill="none" fill-rule="evenodd" sketch:type="MSPage">
        <g id="z-copy" sketch:type="MSArtboardGroup" transform="translate(-132.000000, -100.000000)" fill="#000000">
            <g id="houseplant" sketch:type="MSLayerGroup" transform="translate(100.000000, 100.000000)">
                <path d="M10.1435881,25.4905179 C10.286009,26.7050605 10.531254,27.9706077 10.8919121,29.2887103 C6.25942062,27.4175104 3.57173247,24.180341 2.39781526,19.889403 C1.54190101,16.760839 1.56931096,13.3702525 2.13724518,10.1783222 C2.1501971,10.1055292 2.17646546,9.96330988 2.17646546,9.96330988 C2.17646546,9.96330988 2.33770347,10.0208429 2.92620872,10.2769757 C4.60998953,11.0098007 6.29364519,11.9318703 7.85704035,13.0517448 C9.19214306,14.0080913 10.3087445,15.0188915 11.223018,16.0899229 L11.223018,16.0899229 C10.426841,18.1910249 9.96797687,20.5297906 9.99206994,23.1241613 L5.43414987,14.7605739 C5.30203551,14.5181498 4.99858593,14.4288208 4.75637627,14.5610522 C4.51416661,14.6932836 4.42491674,14.9970019 4.5570311,15.2394261 L10.1435881,25.4905179 L10.1435881,25.4905179 Z M13.0333542,29.4136738 C10.9912074,19.9059085 11.088992,14.922477 21.5133004,6.73565972 C23.6127007,5.0868782 25.9746706,4.01306759 28.2881453,3.03596757 C29.0967374,2.69445726 29.3182746,2.61774651 29.3182746,2.61774651 C29.3182746,2.61774651 29.3543667,2.80737221 29.3721623,2.90442957 C30.1524904,7.1603367 30.190151,11.6811187 29.0141452,15.8525373 C27.1508473,22.4618551 22.5118613,27.1961122 14.1841552,29.413553 L25.4116309,9.74806947 C25.5485147,9.50831075 25.46529,9.20288341 25.2257434,9.06587843 C24.9861969,8.92887344 24.6810398,9.01217181 24.544156,9.25193053 L13.0333542,29.4136738 L13.0333542,29.4136738 L13.0333542,29.4136738 Z M13.4880693,32 C38.9655056,25.5 30.755735,0 30.755735,0 C30.755735,0 17.0308715,3.72274828 11.9893965,14.5 C7.99293593,9 0.873098889,8 0.873098889,8 C-3.99644586,30.5 13.4880693,32 13.4880693,32 Z" sketch:type="MSShapeGroup"></path>
            </g>
            <g id="socket-f" sketch:type="MSLayerGroup" transform="translate(132.000000, 100.000000)">
                <path d="M0,6.00017566 C0,2.68637015 2.68697795,0 6.00017566,0 L25.9998243,0 C29.3136299,0 32,2.68697795 32,6.00017566 L32,25.9998243 C32,29.3136299 29.3130221,32 25.9998243,32 L6.00017566,32 C2.68637015,32 0,29.3130221 0,25.9998243 L0,6.00017566 Z M2,6.00017566 L2,25.9998243 C2,28.2086938 3.79118088,30 6.00017566,30 L25.9998243,30 C28.2086938,30 30,28.2088191 30,25.9998243 L30,6.00017566 C30,3.7913062 28.2088191,2 25.9998243,2 L6.00017566,2 C3.7913062,2 2,3.79118088 2,6.00017566 Z M4,9.00197269 C4,6.23945945 6.23630996,4 9.00197269,4 L22.9980273,4 C25.7605405,4 28,6.23630996 28,9.00197269 L28,22.9980273 C28,25.7605405 25.76369,28 22.9980273,28 L9.00197269,28 C6.23945945,28 4,25.76369 4,22.9980273 L4,9.00197269 Z M5,9.00197269 L5,22.9980273 C5,25.2102201 6.79055863,27 9.00197269,27 L22.9980273,27 C25.2102201,27 27,25.2094414 27,22.9980273 L27,9.00197269 C27,6.78977986 25.2094414,5 22.9980273,5 L9.00197269,5 C6.78977986,5 5,6.79055863 5,9.00197269 Z M16,25 C11.0294373,25 7,20.9705627 7,16 C7,11.0294373 11.0294373,7 16,7 C20.9705627,7 25,11.0294373 25,16 C25,20.9705627 20.9705627,25 16,25 Z M16,24 C20.418278,24 24,20.418278 24,16 C24,11.581722 20.418278,8 16,8 C11.581722,8 8,11.581722 8,16 C8,20.418278 11.581722,24 16,24 Z M13,18 C11.8954305,18 11,17.1045695 11,16 C11,14.8954305 11.8954305,14 13,14 C14.1045695,14 15,14.8954305 15,16 C15,17.1045695 14.1045695,18 13,18 Z M13,17 C13.5522847,17 14,16.5522847 14,16 C14,15.4477153 13.5522847,15 13,15 C12.4477153,15 12,15.4477153 12,16 C12,16.5522847 12.4477153,17 13,17 Z M19,18 C17.8954305,18 17,17.1045695 17,16 C17,14.8954305 17.8954305,14 19,14 C20.1045695,14 21,14.8954305 21,16 C21,17.1045695 20.1045695,18 19,18 Z M19,17 C19.5522847,17 20,16.5522847 20,16 C20,15.4477153 19.5522847,15 19,15 C18.4477153,15 18,15.4477153 18,16 C18,16.5522847 18.4477153,17 19,17 Z" sketch:type="MSShapeGroup"></path>
            </g>
        </g>
    </g>
</svg>

<svg width="32" height="32" xmlns="http://www.w3.org/2000/svg"><g fill="#000" fill-rule="evenodd"><path d="M-21.856 25.49c.142 1.215.387 2.48.748 3.799-4.633-1.871-7.32-5.109-8.494-9.4-.856-3.128-.829-6.519-.26-9.71l.038-.216s.162.058.75.314a26.994 26.994 0 0 1 4.931 2.775c1.335.956 2.452 1.967 3.366 3.038-.796 2.101-1.255 4.44-1.23 7.034l-4.559-8.363a.5.5 0 1 0-.877.478l5.587 10.252Zm2.89 3.924c-2.043-9.508-1.945-14.492 8.48-22.678 2.099-1.65 4.46-2.723 6.774-3.7.809-.342 1.03-.418 1.03-.418l.054.286c.78 4.256.818 8.777-.358 12.949-1.863 6.609-6.502 11.343-14.83 13.56L-6.588 9.749a.5.5 0 0 0-.868-.496l-11.51 20.162Zm.454 2.586C6.966 25.5-1.244 0-1.244 0S-14.97 3.723-20.011 14.5C-24.007 9-31.127 8-31.127 8c-4.87 22.5 12.615 24 12.615 24Z"/><path d="M0 6a6 6 0 0 1 6-6h20a6 6 0 0 1 6 6v20a6 6 0 0 1-6 6H6a6 6 0 0 1-6-6V6Zm2 0v20a4 4 0 0 0 4 4h20a4 4 0 0 0 4-4V6a4 4 0 0 0-4-4H6a4 4 0 0 0-4 4Zm2 3.002A5 5 0 0 1 9.002 4h13.996A5 5 0 0 1 28 9.002v13.996A5 5 0 0 1 22.998 28H9.002A5 5 0 0 1 4 22.998V9.002Zm1 0v13.996A4 4 0 0 0 9.002 27h13.996A4 4 0 0 0 27 22.998V9.002A4 4 0 0 0 22.998 5H9.002A4 4 0 0 0 5 9.002ZM16 25a9 9 0 1 1 0-18 9 9 0 0 1 0 18Zm0-1a8 8 0 1 0 0-16 8 8 0 0 0 0 16Zm-3-6a2 2 0 1 1 0-4 2 2 0 0 1 0 4Zm0-1a1 1 0 1 0 0-2 1 1 0 0 0 0 2Zm6 1a2 2 0 1 1 0-4 2 2 0 0 1 0 4Zm0-1a1 1 0 1 0 0-2 1 1 0 0 0 0 2Z"/></g></svg>
